assets/images/icons/set1/comment.svg

<svg xmlns="http://www.w3.org/2000/svg" width="28" height="28" xmlns:xlink="http://www.w3.org/1999/xlink" id="set1-comment">
  <use xlink:href="#a6" transform="translate(8 8)"/>
  <defs>
    <path id="a6" fill-rule="evenodd" d="M0 4.99976C0 2.2384 2.6864 0 5.99976 0 9.31311 0 11.9995 2.24036 12 5.00183c0 1.63538-1.043 3.08984-2.49988 4.00183 0 0 .99998 3.00444.28095 3.00444-1.33087 0-2.2334-.9852-2.77436-1.5755-.23144-.2527-.39672-.43297-.50097-.43297h-.00598c-.0821 0-.16455.00207-.24744.00417-.08374.0021-.16791.0043-.25256.0043C2.6864 10.0081 0 7.76123 0 4.99976zM8.30219 8.5697l.66699-.41748c1.27142-.79602 2.03042-1.97449 2.03092-3.15137 0-2.20544-2.24296-3.99987-4.99979-3.99987-2.7569 0-4.99982 1.79638-4.99982 4.00183 0 2.20544 2.24292 4.00183 4.99982 4.00183.14349 0 .28845-.00049.43096-.0105l.034.00598h.04047c.54547 0 .86749.344 1.23999.75244.31848.34904.71448.77404 1.20141 1.03004-.08947-.4351-.23297-.97755-.39599-1.46644l-.24896-.74646z"/>
  </defs>
</svg>

<svg width="28" height="28" viewBox="0 0 28 28" version="1.1" xmlns="http://www.w3.org/2000/svg" xmlns:xlink="http://www.w3.org/1999/xlink">
<title>@$&#9;</title>
<desc>Created using Figma</desc>
<g id="Canvas" transform="translate(-556 -1774)">
<g id="Icon/Presta/White/Flag">
<g id="Icon/Presta/White/Comment">
<g id="Shape">
<use xlink:href="#path0_fill" transform="translate(564 1782)" fill="#202A37"/>
</g>
</g>
</g>
</g>
<defs>
<path id="path0_fill" fill-rule="evenodd" d="M 0 4.99976C 0 2.2384 2.6864 0 5.99976 0C 9.31311 0 11.9995 2.24036 12 5.00183C 12 6.63721 10.957 8.09167 9.50012 9.00366C 9.50012 9.00366 10.5001 12.0081 9.78107 12.0081C 8.4502 12.0081 7.54767 11.0229 7.00671 10.4326C 6.77527 10.1799 6.60999 9.99963 6.50574 9.99963L 6.49976 9.99963C 6.41766 9.99963 6.33521 10.0017 6.25232 10.0038C 6.16858 10.0059 6.08441 10.0081 5.99976 10.0081C 2.6864 10.0081 0 7.76123 0 4.99976ZM 8.30219 8.5697L 8.96918 8.15222C 10.2406 7.3562 10.9996 6.17773 11.0001 5.00085C 11.0001 2.79541 8.75714 1.00098 6.00031 1.00098C 3.24341 1.00098 1.00049 2.79736 1.00049 5.00281C 1.00049 7.20825 3.24341 9.00464 6.00031 9.00464C 6.1438 9.00464 6.28876 9.00415 6.43127 8.99414L 6.46527 9.00012L 6.50574 9.00012C 7.05121 9.00012 7.37323 9.34412 7.74573 9.75256C 8.06421 10.1016 8.46021 10.5266 8.94714 10.7826C 8.85767 10.3475 8.71417 9.80505 8.55115 9.31616L 8.30219 8.5697Z"/>
</defs>
</svg>
